X: 654
T: Isabella Burke
C:O'Carolan
B:O'Neill's 654
Z: 1997 by John Chambers <jc@trillian.mit.edu>
N:"Slow"
N:collected by F.O'Neill.
M:3/4
L:1/8
K:Dm
d2 d2 (dc) | d2 g2 (gf) | d2 fd c>B | B4 (FG) \
| A2 B2 (AG) | F2 f2 (d>c) | B2 A2 (G>F) | D4 ||
|| (D>E) \
| (F2 B2) (AG) | F4 (F/G/A) | (B2 d2) (c>B) | B4 (FG) \
| A2 B2 (AG) | F2 f2 (d>c) | B2 A2 (G>F) | D4 |]


